icons/desktop/32/cricket-32.svg

<svg width="32" height="32" viewBox="0 0 32 32" fill="none" xmlns="http://www.w3.org/2000/svg">
<path fill-rule="evenodd" clip-rule="evenodd" d="M8.63879 4C9.45379 4 10.2699 4.28435 10.9249 4.86035C12.7408 6.45628 14.61 8.19685 16.507 10.0938C18.404 11.9907 20.1453 13.8608 21.7413 15.6758C22.9542 17.0558 22.8704 19.1453 21.5704 20.4453L21.3917 20.624L26.6339 25.8662C27.1217 26.3542 27.1217 27.1448 26.6339 27.6338C26.1459 28.1218 25.3543 28.1218 24.8653 27.6338L19.6232 22.3916L19.4445 22.5713C18.7615 23.254 17.8618 23.6005 16.9611 23.6006C16.1461 23.6006 15.3299 23.3171 14.6749 22.7412C12.8599 21.1452 10.9899 19.4038 9.09289 17.5068C7.19592 15.6099 5.45449 13.7398 3.85851 11.9248C2.6459 10.5449 2.72887 8.45618 4.02844 7.15625L6.15539 5.03027C6.83835 4.34737 7.73787 4.00003 8.63879 4ZM8.63781 6.49902C8.4818 6.49904 8.18092 6.53703 7.92199 6.7959L5.79601 8.92188C5.42301 9.29388 5.39647 9.88844 5.73547 10.2734C7.37744 12.1414 9.10152 13.9803 10.8595 15.7383C12.6185 17.4963 14.4573 19.2203 16.3253 20.8623C16.5482 21.059 16.7942 21.0996 16.9601 21.0996C17.1161 21.0996 17.417 21.0616 17.6759 20.8027L19.8019 18.6768C20.1748 18.3048 20.2004 17.7111 19.8614 17.3262C18.2195 15.4592 16.4954 13.6203 14.7374 11.8623C12.9794 10.1043 11.1415 8.38025 9.27355 6.73828C9.10622 6.59048 8.92619 6.53049 8.77648 6.50977L8.63781 6.49902Z" fill="black"/>
<path fill-rule="evenodd" clip-rule="evenodd" d="M25.0001 4C27.7615 4 30.0001 6.23858 30.0001 9C30.0001 11.7614 27.7615 14 25.0001 14C22.2387 14 20.0001 11.7614 20.0001 9C20.0001 6.23858 22.2387 4 25.0001 4ZM25.0001 6.5C23.6194 6.5 22.5001 7.61929 22.5001 9C22.5001 10.3807 23.6194 11.5 25.0001 11.5C26.3808 11.5 27.5001 10.3807 27.5001 9C27.5001 7.61929 26.3808 6.5 25.0001 6.5Z" fill="black"/>
</svg>

<!-- This Source Code Form is subject to the terms of the Mozilla Public
   - License, v. 2.0. If a copy of the MPL was not distributed with this
   - file, You can obtain one at http://mozilla.org/MPL/2.0/. -->
<svg xmlns="http://www.w3.org/2000/svg" width="32" height="32" fill="context-fill" fill-opacity="context-fill-opacity" viewBox="0 0 32 32">
    <path fill-rule="evenodd" d="M8.639 4a3.45 3.45 0 0 1 2.286.86A119 119 0 0 1 21.74 15.676c1.213 1.38 1.13 3.47-.17 4.77l-.18.178 5.243 5.242a1.25 1.25 0 0 1-1.769 1.768l-5.242-5.242-.178.18A3.5 3.5 0 0 1 16.96 23.6a3.45 3.45 0 0 1-2.286-.86A119 119 0 0 1 3.859 11.925c-1.213-1.38-1.13-3.469.17-4.769L6.154 5.03A3.5 3.5 0 0 1 8.64 4m-.001 2.499c-.156 0-.457.038-.716.297L5.796 8.922a.99.99 0 0 0-.06 1.351 117 117 0 0 0 5.124 5.465 118 118 0 0 0 5.465 5.124.95.95 0 0 0 .635.238c.156 0 .457-.038.716-.297l2.126-2.126a.99.99 0 0 0 .06-1.35A117.036 117.036 0 0 0 9.273 6.738a.94.94 0 0 0-.498-.23zM25 4a5 5 0 1 1 0 10 5 5 0 0 1 0-10m0 2.5a2.5 2.5 0 1 0 0 5 2.5 2.5 0 0 0 0-5" clip-rule="evenodd" />
</svg>
